X:1
T:Christ Shall Be King
T:Charles Hutchinson Gabriel
T:Christ Shall Be King
T:Public Domain
T:Public Domain
T:Public Domain
C:Charles Hutchinson Gabriel
Z:Public Domain
%%score ( 1 2 ) ( 3 4 )
L:1/8
M:4/4
K:Eb
V:1 treble 
V:2 treble 
V:3 bass 
V:4 bass 
V:1
 [GB]2 [GB]>[Ac] [GB]2 [EG]>[GB] | [Ge]2 [Ae]2 [Ge]4 | [Ad]2 [FA]>[FA] [Ad]2 [Ac]2 | %3
w: 1.~Christ shall be King of the|whole wide world,|He shall be King, let|
w: 2.~Christ shall be King o- ver|land and sea,|He shall be King, let|
w: 3.~Christ shall be King in my|heart to- day,|He shall be King, let|
 [Ac]2 [GB]2 [EG]4 | [GB]2 [GB]>[Ac] [GB]2 [EG]>[GB] | [Ac]2 [Ac]2 [Ac]4 | %6
w: prais- es ring!|Un- der His ban- ner of|love un- furled,|
w: prais- es ring!|He who re- deemed us and|made us free,|
w: prais- es ring!|O- ver each thought and each|pur- pose sway,|
 [=Ac]2 [Ac]>[Ad] [Ac]2 [FA]>[Fc] | [Fd]2 [Fd]2 [Fd]2 [FB]2 | !>![Fe]2 !>![Ae]2 !>![EG]2 !>![DF]2 | %9
w: There shall be ga- thered the|whole wide world, And|Christ shall be the|
w: King of the world shall for-|ev- er be, Yes,|Christ shall be the|
w: All that I have shall be|His al- way, For|Christ shall be the|
 !>!E6 z2 ||"^Refrain" (3(G^FG) A>(G B>)B B2 | (3(G^FG) A>(G B>)B B2 | %12
w: King.|ver * * all the * world Christ|King, * * O- ver * all the|
w: King.|||
w: King.|||
 (3:2:2([AB]2 A) (A>A) f>f f2 | (3:2:2([Af]2 A) (3:2:2([Af]2 A) e>e e2 | %14
w: prais- * es * ring; Ev- ery|na- * tion * Shall know His|
w: ||
w: ||
 (3([GB][^F=A])[GB] [_Ac]>[GB] [Ge]2 [GB]>[GB] | (3(c=B)[_Ac] [Ad]>[A_B] [=Af]2 [Ae]2 | %16
w: sal- * va- tion; Christ shall be the|King, * He shall be the King.|
w: ||
w: ||
 (3:2:2[Bd]2 [Bd] (3:2:2[Bd]2 [Bd] [Ge] z B>B | [Ac]2 [Ad]2 [Ge]4 |] %18
w: ||
w: ||
w: ||
V:2
 x8 | x8 | x8 | x8 | x8 | x8 | x8 | x8 | x8 | E6 x2 || e2 e2 E4 | e2 e2 A4 | x2 d2 A4 | x4 G4 | %14
w: |||||||||O-|shall be the|world let His|land and|great|
 x8 | =A2 x6 | x6 B>B | x8 |] %18
w: ||||
V:3
 [E,B,]2 [E,E]>[E,E] [E,E]2 [E,B,]>[E,E] | [E,B,]2 [E,C]2 [E,B,]4 | %2
w: ~ ~ ~ ~ ~ ~|~ ~ ~|
 [F,B,]2 [B,D]>[B,D] [B,F]2 [B,D]2 | [E,E]2 [E,E]2 [E,B,]4 | %4
w: ~ ~ ~ ~ ~|~ ~ ~|
 [E,B,]2 [E,E]>[E,E] [E,E]2 [E,B,]>[E,E] | [A,E]2 [A,E]2 [A,E]4 | %6
w: ~ ~ ~ ~ ~ ~|~ ~ ~|
 [F,E]2 [F,E]>[F,E] [F,E]2 [F,C]>[F,=A,] | B,2 B,2 B,2 [A,B,]2 | [G,B,]2 [A,C]2 B,2 [B,,A,]2 | %9
w: ~ ~ ~ ~ ~ ~|~ ~ ~ ~|~ ~ O- ver|
 [E,G,]6 z2 || (3(B,=A,)[E,B,] [E,C]>[E,B,] [E,G,]4 | (3(B,=A,)[E,B,] [E,C]>[E,B,] [F,D]4 | %12
w: the|world * Christ shall be the|O- * ver all the world|
 (3(D^C)[B,,D] [B,,F]>[B,,E] [B,,D]4 | (3(DE)[B,,D] (3(CD)[B,,C] [E,B,]4 | %14
w: His * prais- es ring; *||
 (3:2:2([E,E]2 [E,E]) [E,E]>[E,E] [E,B,]2 [E,E]>[E,E] | %15
w: |
 (3(ED)[_A,E] [F,B,]>[F,D] [F,E]2 (3(z G,=A,) | (3(B,C)[B,F] (3A,G,[F,B,] [E,B,] z [G,E]>[G,E] | %17
w: ||
 [A,E]2 B,2 [E,B,]4 |] %18
w: |
V:4
 x8 | x8 | x8 | x8 | x8 | x8 | x8 | B,2 B,2 B,2 x2 | x4 B,2 x2 | x8 || E,2 x6 | E,2 x6 | B,,2 x6 | %13
w: |||||||~ ~ ~|all||King;|let||
 B,,2 B,,2 x4 | x8 | =A,2 x10/3 [F,F]2 x2/3 | F2 F2 x4 | x2 B,2 x4 |] %18
w: |||||

